Dominus_Funeral/22/apps/spotify-client.svg

<svg xmlns="http://www.w3.org/2000/svg" width="24" height="24" viewBox="0 0 6.35 6.35"><path d="M2.52 1.17c.57 0 1.16.06 1.7.18.46.1.87.24 1.25.42.23.1.32.17.37.25.02.08.02.21 0 .28a.36.36 0 0 1-.4.2 5.4 5.4 0 0 0-2.13-.61A6.28 6.28 0 0 0 1.07 2c-.22.06-.29.06-.39 0a.32.32 0 0 1-.19-.3c0-.1.04-.18.12-.25.07-.06.1-.06.33-.12a6.58 6.58 0 0 1 1.58-.18zM2.4 2.5a16.2 16.2 0 0 1 .9.03c.65.1 1.2.28 1.7.56.32.17.37.23.4.39.04.18-.12.36-.3.36a.73.73 0 0 1-.17-.09 4.25 4.25 0 0 0-2.42-.62c-.43.01-.67.04-1.02.14l-.28.06c-.06 0-.18-.07-.22-.13a.32.32 0 0 1 .12-.47 4.39 4.39 0 0 1 1.29-.23zm.15 1.34a10.38 10.38 0 0 1 .73.03c.52.1.96.27 1.36.56.25.17.3.23.32.39.02.18-.1.36-.24.36a.53.53 0 0 1-.15-.09 2.97 2.97 0 0 0-2.75-.47l-.22.05c-.05 0-.14-.06-.18-.13-.07-.16-.03-.39.1-.47a2.93 2.93 0 0 1 1.03-.23z" fill="#1a1a1a"/></svg>

<?xml version="1.0" encoding="UTF-8" standalone="no"?>
<svg
   xmlns:dc="http://purl.org/dc/elements/1.1/"
   xmlns:cc="http://creativecommons.org/ns#"
   xmlns:rdf="http://www.w3.org/1999/02/22-rdf-syntax-ns#"
   xmlns:svg="http://www.w3.org/2000/svg"
   xmlns="http://www.w3.org/2000/svg"
   xmlns:sodipodi="http://sodipodi.sourceforge.net/DTD/sodipodi-0.dtd"
   xmlns:inkscape="http://www.inkscape.org/namespaces/inkscape"
   width="24"
   height="24"
   viewBox="0 0 6.35 6.35"
   version="1.1"
   id="svg4"
   sodipodi:docname="spotify-client.svg"
   inkscape:version="0.92.4 (5da689c313, 2019-01-14)">
  <metadata
     id="metadata10">
    <rdf:RDF>
      <cc:Work
         rdf:about="">
        <dc:format>image/svg+xml</dc:format>
        <dc:type
           rdf:resource="http://purl.org/dc/dcmitype/StillImage" />
        <dc:title></dc:title>
      </cc:Work>
    </rdf:RDF>
  </metadata>
  <defs
     id="defs8" />
  <sodipodi:namedview
     pagecolor="#ffffff"
     bordercolor="#666666"
     borderopacity="1"
     objecttolerance="10"
     gridtolerance="10"
     guidetolerance="10"
     inkscape:pageopacity="0"
     inkscape:pageshadow="2"
     inkscape:window-width="1138"
     inkscape:window-height="480"
     id="namedview6"
     showgrid="false"
     inkscape:zoom="9.8333333"
     inkscape:cx="1.0677966"
     inkscape:cy="12"
     inkscape:window-x="0"
     inkscape:window-y="25"
     inkscape:window-maximized="0"
     inkscape:current-layer="svg4" />
  <path
     d="m 2.52,1.17 c 0.57,0 1.16,0.06 1.7,0.18 0.46,0.1 0.87,0.24 1.25,0.42 0.23,0.1 0.32,0.17 0.37,0.25 0.02,0.08 0.02,0.21 0,0.28 A 0.36,0.36 0 0 1 5.44,2.5 5.4,5.4 0 0 0 3.31,1.89 6.28,6.28 0 0 0 1.07,2 C 0.85,2.06 0.78,2.06 0.68,2 A 0.32,0.32 0 0 1 0.49,1.7 C 0.49,1.6 0.53,1.52 0.61,1.45 0.68,1.39 0.71,1.39 0.94,1.33 A 6.58,6.58 0 0 1 2.52,1.15 Z M 2.4,2.5 A 16.2,16.2 0 0 1 3.3,2.53 C 3.95,2.63 4.5,2.81 5,3.09 5.32,3.26 5.37,3.32 5.4,3.48 5.44,3.66 5.28,3.84 5.1,3.84 A 0.73,0.73 0 0 1 4.93,3.75 4.25,4.25 0 0 0 2.51,3.13 C 2.08,3.14 1.84,3.17 1.49,3.27 L 1.21,3.33 C 1.15,3.33 1.03,3.26 0.99,3.2 A 0.32,0.32 0 0 1 1.11,2.73 4.39,4.39 0 0 1 2.4,2.5 Z M 2.55,3.84 A 10.38,10.38 0 0 1 3.28,3.87 C 3.8,3.97 4.24,4.14 4.64,4.43 4.89,4.6 4.94,4.66 4.96,4.82 4.98,5 4.86,5.18 4.72,5.18 A 0.53,0.53 0 0 1 4.57,5.09 2.97,2.97 0 0 0 1.82,4.62 L 1.6,4.67 C 1.55,4.67 1.46,4.61 1.42,4.54 1.35,4.38 1.39,4.15 1.52,4.07 A 2.93,2.93 0 0 1 2.55,3.84 Z"
     id="path2"
     inkscape:connector-curvature="0"
     style="fill:#1a1a1a" />
</svg>
